gama.ui.shared/icons_svg/dark/gaml/_test.svg

<?xml version="1.0" encoding="UTF-8" standalone="no"?>
<!DOCTYPE svg PUBLIC "-//W3C//DTD SVG 1.1//EN" "http://www.w3.org/Graphics/SVG/1.1/DTD/svg11.dtd">
<svg xmlns:dc="http://purl.org/dc/elements/1.1/" xmlns:xl="http://www.w3.org/1999/xlink" version="1.1" xmlns="http://www.w3.org/2000/svg" viewBox="-524.73985 -2807.737 24 18" width="24" height="18">
  <defs/>
  <g id="SOURCES" stroke-dasharray="none" stroke="none" stroke-opacity="1" fill="none" fill-opacity="1">
    <title>SOURCES</title>
    <g id="SOURCES_New">
      <title>New</title>
      <g id="Group_10478">
        <g id="Graphic_10286"/>
        <g id="Group_10287">
          <title>design-validation</title>
          <g id="Graphic_10288">
            <path d="M -520.11985 -2792.927 L -521.58985 -2794.397 L -523.05985 -2792.927 C -522.65385 -2792.619 -522.14285 -2792.437 -521.58985 -2792.437 C -521.03685 -2792.437 -520.53285 -2792.619 -520.11985 -2792.927 Z M -519.62985 -2793.417 C -519.32185 -2793.823 -519.13985 -2794.334 -519.13985 -2794.887 C -519.13985 -2795.44 -519.32185 -2795.944 -519.62985 -2796.357 L -521.09985 -2794.887 L -519.62985 -2793.417 Z M -523.54985 -2796.357 C -523.85785 -2795.951 -524.03985 -2795.44 -524.03985 -2794.887 C -524.03985 -2794.334 -523.85785 -2793.83 -523.54985 -2793.417 L -522.07985 -2794.887 L -523.54985 -2796.357 Z M -523.05985 -2796.847 L -521.58985 -2795.377 L -520.11985 -2796.847 C -520.52585 -2797.155 -521.03685 -2797.337 -521.58985 -2797.337 C -522.14285 -2797.337 -522.64685 -2797.155 -523.05985 -2796.847 Z M -521.58985 -2799.437 C -523.33285 -2799.437 -524.73985 -2800.844 -524.73985 -2802.587 C -524.73985 -2804.33 -523.33285 -2805.737 -521.58985 -2805.737 C -519.84685 -2805.737 -518.43985 -2804.33 -518.43985 -2802.587 C -518.43985 -2800.844 -519.84685 -2799.437 -521.58985 -2799.437 Z M -521.58985 -2800.137 C -520.23885 -2800.137 -519.13985 -2801.236 -519.13985 -2802.587 C -519.13985 -2803.938 -520.23885 -2805.037 -521.58985 -2805.037 C -522.94085 -2805.037 -524.03985 -2803.938 -524.03985 -2802.587 C -524.03985 -2801.236 -522.94085 -2800.137 -521.58985 -2800.137 Z M -520.81285 -2803.504 C -520.69385 -2803.658 -520.46985 -2803.679 -520.32285 -2803.56 C -520.16885 -2803.441 -520.14785 -2803.217 -520.26685 -2803.07 L -521.66685 -2801.32 C -521.79985 -2801.159 -522.03785 -2801.145 -522.18485 -2801.292 L -522.88485 -2801.992 C -523.02485 -2802.132 -523.02485 -2802.349 -522.88485 -2802.489 C -522.74485 -2802.629 -522.52785 -2802.629 -522.38785 -2802.489 L -521.96785 -2802.069 L -520.81285 -2803.511 Z M -516.68985 -2802.937 C -516.88585 -2802.937 -517.03985 -2803.091 -517.03985 -2803.287 C -517.03985 -2803.483 -516.88585 -2803.637 -516.68985 -2803.637 L -511.08985 -2803.637 C -510.89385 -2803.637 -510.73985 -2803.483 -510.73985 -2803.287 C -510.73985 -2803.091 -510.89385 -2802.937 -511.08985 -2802.937 Z M -516.68985 -2801.537 C -516.88585 -2801.537 -517.03985 -2801.691 -517.03985 -2801.887 C -517.03985 -2802.083 -516.88585 -2802.237 -516.68985 -2802.237 L -512.48985 -2802.237 C -512.29385 -2802.237 -512.13985 -2802.083 -512.13985 -2801.887 C -512.13985 -2801.691 -512.29385 -2801.537 -512.48985 -2801.537 Z M -521.58985 -2791.737 C -523.33285 -2791.737 -524.73985 -2793.144 -524.73985 -2794.887 C -524.73985 -2796.63 -523.33285 -2798.037 -521.58985 -2798.037 C -519.84685 -2798.037 -518.43985 -2796.63 -518.43985 -2794.887 C -518.43985 -2793.144 -519.84685 -2791.737 -521.58985 -2791.737 Z M -516.68985 -2795.237 C -516.88585 -2795.237 -517.03985 -2795.391 -517.03985 -2795.587 C -517.03985 -2795.783 -516.88585 -2795.937 -516.68985 -2795.937 L -511.08985 -2795.937 C -510.89385 -2795.937 -510.73985 -2795.783 -510.73985 -2795.587 C -510.73985 -2795.391 -510.89385 -2795.237 -511.08985 -2795.237 Z M -516.68985 -2793.837 C -516.88585 -2793.837 -517.03985 -2793.991 -517.03985 -2794.187 C -517.03985 -2794.383 -516.88585 -2794.537 -516.68985 -2794.537 L -512.48985 -2794.537 C -512.29385 -2794.537 -512.13985 -2794.383 -512.13985 -2794.187 C -512.13985 -2793.991 -512.29385 -2793.837 -512.48985 -2793.837 Z" fill="#999"/>
          </g>
        </g>
      </g>
    </g>
  </g>
</svg>

<svg height="18" viewBox="-524.74 -2807.737 24 18" width="24" xmlns="http://www.w3.org/2000/svg"><path d="m-520.11985-2792.927-1.47-1.47-1.47 1.47c.406.308.917.49 1.47.49s1.057-.182 1.47-.49zm.49-.49c.308-.406.49-.917.49-1.47s-.182-1.057-.49-1.47l-1.47 1.47zm-3.92-2.94c-.308.406-.49.917-.49 1.47s.182 1.057.49 1.47l1.47-1.47zm.49-.49 1.47 1.47 1.47-1.47c-.406-.308-.917-.49-1.47-.49s-1.057.182-1.47.49zm1.47-2.59c-1.743 0-3.15-1.407-3.15-3.15s1.407-3.15 3.15-3.15 3.15 1.407 3.15 3.15-1.407 3.15-3.15 3.15zm0-.7c1.351 0 2.45-1.099 2.45-2.45s-1.099-2.45-2.45-2.45-2.45 1.099-2.45 2.45 1.099 2.45 2.45 2.45zm.777-3.367c.119-.154.343-.175.49-.056.154.119.175.343.056.49l-1.4 1.75c-.133.161-.371.175-.518.028l-.7-.7c-.14-.14-.14-.357 0-.497s.357-.14.497 0l.42.42 1.155-1.442zm4.123.567c-.196 0-.35-.154-.35-.35s.154-.35.35-.35h5.6c.196 0 .35.154.35.35s-.154.35-.35.35zm0 1.4c-.196 0-.35-.154-.35-.35s.154-.35.35-.35h4.2c.196 0 .35.154.35.35s-.154.35-.35.35zm-4.9 9.8c-1.743 0-3.15-1.407-3.15-3.15s1.407-3.15 3.15-3.15 3.15 1.407 3.15 3.15-1.407 3.15-3.15 3.15zm4.9-3.5c-.196 0-.35-.154-.35-.35s.154-.35.35-.35h5.6c.196 0 .35.154.35.35s-.154.35-.35.35zm0 1.4c-.196 0-.35-.154-.35-.35s.154-.35.35-.35h4.2c.196 0 .35.154.35.35s-.154.35-.35.35z" fill="#999"/></svg>
